X: 25897
T: Matt Teehan's
R: polka
M: 2/4
K: Dmajor
|:FA d2|cB B2|E2 Bc|BA FA|
FA d>d|cB B2|ce Bc|ed d2:|
|:af ge|fd d>f|eA ce|dc BA|
af ge|fd d>f|eA ce|1 dg fg:|2 d2 dA||

